X: 93
T: 93. Wach auf, mein Herz
N: Derived from chor093.krn
C: Johann Sebastian Bach
%%abc-version 2.0
%%abcx-abcm2ps-target-version 5.9.1 (29 Sep 2008)
%%abc-creator hum2abc beta
%%abcx-conversion-date 2019/03/11 17:28:18
%%abc-edited-by Craig Stuart Sapp
%%humdrum-veritas 1798625079
%%humdrum-veritas-data 2312283722
%%
%%barnumbers 0
L: 1/4
M: 3/4
%%staves [1 2 3 4]
V: 1 clef=treble
V: 2 clef=treble
V: 3 clef=treble-8
V: 4 clef=bass
K: Bb
[V:1] B [I:setbarnb 1]| 
[V:2] F | 
[V:3] d | 
[V:4] B, | 
[V:1] B2A | 
[V:2] G2F | 
[V:3] d2d/c/ | 
[V:4] G,2D, | 
[V:1] GAB | 
[V:2] EFF | 
[V:3] BcB | 
[V:4] E,2D, | 
[V:1] c3 | 
[V:2] G=F2 | 
[V:3] B2A | 
[V:4] E,F,2 | 
[V:1] !fermata!B2B | 
[V:2] !fermata!F2F | 
[V:3] !fermata!d2d | 
[V:4] !fermata!B,,2B, | 
[V:1] B2c | 
[V:2] F2G | 
[V:3] d2c | 
[V:4] D,2=E, | 
[V:1] AGF | 
[V:2] F2F | 
[V:3] c2c | 
[V:4] F,G,A, | 
[V:1] B3 | 
[V:2] F=E/D/E | 
[V:3] dcB | 
[V:4] G,3 | 
[V:1] !fermata!A2A | 
[V:2] !fermata!F2^F | 
[V:3] !fermata!c2d | 
[V:4] !fermata!F,2D, | 
[V:1] B2B | 
[V:2] G2G | 
[V:3] d2e | 
[V:4] G,2E, | 
[V:1] c2d | 
[V:2] E2D | 
[V:3] A2B | 
[V:4] C,2B,, | 
[V:1] c3 | 
[V:2] =EF/E/G/F/ | 
[V:3] BA/G/B/A/ | 
[V:4] C,3 | 
[V:1] !fermata!c2d | 
[V:2] !fermata!F2A | 
[V:3] !fermata!A2d | 
[V:4] !fermata!F,2^F, | 
[V:1] e2d | 
[V:2] BcF | 
[V:3] dcB | 
[V:4] G,A,B, | 
[V:1] cd/c/B- | 
[V:2] GAD/_E/ | 
[V:3] BAB | 
[V:4] =E,^F,G, | 
[V:1] B/c/c3/B/ | 
[V:2] =FGF | 
[V:3] B2A | 
[V:4] D,E,F, | 
[V:1] !fermata!B3 |]  
[V:2] !fermata!F3 |]  
[V:3] !fermata!d3 |]  
[V:4] !fermata!B,,3 |]  



